X:887
T:Torry Burn
R:Reel
B:The Athole Collection
M:C|
L:1/8
K:G
D|G2BG BddB|c2ec efgB|G2BG Bcdg|edcB A2G:|
d|g2 bg afed|edef geBG|g2bg afed|edef g2ga|bagf gfed|
edef geBG|cBcd efge|dBGB A2G||

